!!!ONR: No. 43
!! From Harold Courlander, "Haiti Singing"
!! Chapel Hill: University of North Carolina Press, 1939
!! Copyright University of North Carolina Press
!!!ENC: D. Huron
**kern
*clefG2
*k[f#]
*M2/4
=1-
4r
16b
16dd
16ee
16ff#
=
8ee
16r
16dd
8b
16r
16g
=
8a
8b
[4ee
=
4ee]
16b
16dd
16ee
16ff#
=
8e
16r
16dd
8b
16r
16g
=
8a
8b
[4ee
=
4ee]
12b
12ee
12dd
=
8a
8a
12b
12ee
12dd
=
4dd
12dd
12ee
12dd
=
8a
8a
12dd
12b
12ee
=
4ee
12b
12ee
12dd
=
8a
8a
12b
12ee
12dd
=
2dd
==
*-
